assets/img/target.svg

<svg width="120" height="120" viewBox="0 0 120 120" fill="none" xmlns="http://www.w3.org/2000/svg">
<circle cx="60" cy="60" r="60" fill="#F3F3F3"/>
<path d="M38.2219 51.5042C38.2882 51.5161 38.3543 51.5218 38.4193 51.5218C38.9497 51.5218 39.4202 51.142 39.5168 50.6017C40.4986 45.103 43.4024 40.0766 47.6933 36.448C52.0341 32.7773 57.5605 30.7557 63.2544 30.7557C69.3281 30.7557 75.1308 33.0212 79.5934 37.1347C80.0464 37.5526 80.7528 37.5237 81.1705 37.0705C81.5882 36.6172 81.5595 35.9112 81.1062 35.4934C76.2302 30.9987 69.8901 28.5234 63.2544 28.5234C57.0336 28.5234 50.9954 30.7324 46.2519 34.7434C41.5647 38.7069 38.3924 44.1995 37.3193 50.2091C37.211 50.8161 37.615 51.3959 38.2219 51.5042Z" fill="#6ADF91"/>
<path d="M76.6878 69.6531C76.9701 69.6531 77.2529 69.5466 77.4701 69.333C81.3807 65.4891 83.5344 60.3527 83.5344 54.8698C83.5344 43.6877 74.4371 34.5903 63.2549 34.5903C58.6688 34.5903 54.1744 36.1644 50.5996 39.0229C47.0799 41.8372 44.5689 45.7875 43.5288 50.1464C43.3857 50.746 43.7558 51.3481 44.3554 51.4911C44.9554 51.6342 45.557 51.2641 45.7 50.6644C46.6253 46.7866 48.8605 43.2714 51.9936 40.7661C55.2203 38.186 59.1145 36.8223 63.2549 36.8223C73.2063 36.8223 81.3023 44.9183 81.3023 54.8696C81.3023 59.749 79.3856 64.3201 75.9054 67.7411C75.4658 68.1731 75.4597 68.8798 75.8918 69.3193C76.1104 69.5417 76.399 69.6531 76.6878 69.6531Z" fill="#6ADF91"/>
<path d="M72.5193 70.3612C69.7295 72.0335 66.5258 72.9175 63.2544 72.9175C58.28 72.9175 53.6468 70.9367 50.208 67.34C49.7821 66.8944 49.0757 66.8785 48.63 67.3045C48.1845 67.7304 48.1685 68.437 48.5946 68.8825C52.4584 72.9239 57.6648 75.1496 63.2544 75.1496C66.93 75.1496 70.5306 74.1559 73.6669 72.2757C74.1956 71.9588 74.3673 71.2733 74.0504 70.7446C73.7336 70.216 73.048 70.0441 72.5193 70.3612Z" fill="#6ADF91"/>
<path d="M63.2551 41.4058C60.4728 41.4058 57.8023 42.2474 55.5321 43.8398C53.3138 45.3958 51.633 47.5511 50.6712 50.0732C50.4516 50.6491 50.7404 51.294 51.3163 51.5136C51.8922 51.7336 52.5373 51.4445 52.7568 50.8686C54.406 46.5437 58.6249 43.6379 63.255 43.6379C69.448 43.6379 74.4865 48.6763 74.4865 54.8693C74.4865 61.0623 69.4481 66.1008 63.255 66.1008C60.9452 66.1008 58.7267 65.4055 56.8397 64.0897C54.9938 62.8028 53.59 61.0187 52.7797 58.9302C52.5568 58.3556 51.9102 58.0705 51.3355 58.2934C50.7609 58.5163 50.4758 59.1629 50.6987 59.7376C51.67 62.241 53.352 64.3791 55.563 65.9206C57.8264 67.4988 60.4862 68.333 63.255 68.333C70.6788 68.333 76.7187 62.2933 76.7187 54.8693C76.7187 47.4453 70.6791 41.4058 63.2551 41.4058Z" fill="#6ADF91"/>
<path d="M35.8099 64.445C35.2647 64.1572 34.5895 64.3665 34.3022 64.9117C32.8005 67.7599 30.744 71.6607 33.5178 75.5383C33.7301 75.8352 34.0703 76.0052 34.4255 76.0052C34.5072 76.0052 34.5898 75.9961 34.6718 75.9775C35.1098 75.8784 35.4458 75.5264 35.5243 75.0843C35.7496 73.8174 36.8336 72.333 38.8288 70.5654C40.1943 72.569 42.0496 74.266 44.5761 75.8367C45.0284 76.1178 45.6157 76.0404 45.9797 75.652C46.3437 75.2638 46.3828 74.6724 46.0731 74.2395C44.0886 71.4653 45.5804 68.6559 47.3078 65.4028C48.8465 62.505 50.5578 59.2791 49.3354 55.9858H57.0319C57.5606 58.9419 60.1489 61.1934 63.2547 61.1934C66.7414 61.1934 69.5782 58.3567 69.5782 54.8699C69.5782 51.3831 66.7414 48.5464 63.2547 48.5464C60.149 48.5464 57.5609 50.7976 57.0319 53.7535H34.8498L29.7685 49.9699C29.576 49.8264 29.3422 49.7489 29.102 49.7489H19.0214C18.5665 49.7489 18.1569 50.0251 17.9865 50.4468C17.8162 50.8687 17.9188 51.3517 18.2461 51.6678C19.1238 52.5154 19.6072 53.6526 19.6072 54.8702C19.6072 56.0878 19.1238 57.225 18.2462 58.0724C17.9188 58.3885 17.8162 58.8715 17.9865 59.2934C18.1571 59.7153 18.5663 59.9915 19.0214 59.9915H29.1019C29.3421 59.9915 29.5758 59.9139 29.7684 59.7705L34.8504 55.9861H36.1307C36.9742 57.4331 36.9892 58.9787 36.1979 61.0404C35.977 61.6159 36.2644 62.2616 36.8398 62.4824C37.415 62.7031 38.0608 62.4157 38.2816 61.8404C38.8559 60.3444 39.4287 58.2442 38.5938 55.9863H46.8723C48.3874 58.6099 46.9668 61.2854 45.3362 64.3562C44.1016 66.6814 42.7545 69.2178 42.9023 71.8309C41.7151 70.7645 40.7888 69.616 40.0679 68.3306C39.9066 68.0431 39.6266 67.8416 39.3026 67.78C38.9787 67.719 38.6443 67.8035 38.3888 68.0119C36.5633 69.5014 35.2715 70.8224 34.4385 72.0738C34.1742 70.1888 35.087 68.209 36.2766 65.9528C36.5642 65.4075 36.3551 64.7325 35.8099 64.445ZM63.2547 50.7788C65.5106 50.7788 67.3461 52.6141 67.3461 54.8702C67.3461 57.1263 65.5108 58.9616 63.2547 58.9616C61.3856 58.9616 59.8065 57.7013 59.3194 55.9861H63.255C63.8714 55.9861 64.3711 55.4864 64.3711 54.87C64.3711 54.2537 63.8714 53.754 63.255 53.754H59.3196C59.8068 52.0389 61.3858 50.7788 63.2547 50.7788ZM28.7319 57.7592H21.187C21.6142 56.8699 21.8394 55.8889 21.8394 54.87C21.8394 53.8513 21.6142 52.8702 21.187 51.9809H28.7319L32.6115 54.87L28.7319 57.7592Z" fill="#4BB1E9"/>
<path d="M92.98 86.6684H85.0633L78.8943 76.0706C85.6164 71.1071 89.6007 63.2598 89.6007 54.8699C89.6007 49.095 87.767 43.6124 84.2981 39.0147C83.927 38.5227 83.2271 38.4248 82.735 38.7959C82.2429 39.1672 82.145 39.8671 82.5163 40.359C85.6907 44.5663 87.3685 49.5842 87.3685 54.8699C87.3685 62.8678 83.4141 70.3293 76.7898 74.8295C75.208 75.9059 73.4987 76.7886 71.7081 77.4592C71.6516 77.4803 71.5956 77.5034 71.5388 77.524H71.5386C71.5385 77.524 71.5385 77.524 71.5383 77.5242C68.8923 78.4931 66.1056 78.9845 63.2554 78.9845C60.4093 78.9845 57.6222 78.4931 54.9721 77.5242C53.1237 76.8481 51.3563 75.9409 49.715 74.8251C49.3833 74.6017 49.0367 74.3528 48.6559 74.0641C48.1647 73.6915 47.4648 73.7879 47.0923 74.279C46.7199 74.77 46.8161 75.4702 47.3072 75.8426C47.4114 75.9217 47.5133 75.998 47.6135 76.072L41.4459 86.6684H33.5301C32.9138 86.6684 32.4141 87.1681 32.4141 87.7845C32.4141 88.4008 32.9138 88.9005 33.5301 88.9005H42.0763C42.08 88.9005 42.0836 88.9013 42.0871 88.9013H50.169C50.1724 88.9013 50.1757 88.9005 50.1791 88.9005H76.3298C76.3333 88.9005 76.3365 88.9013 76.3399 88.9013H84.4218C84.4255 88.9013 84.4291 88.9005 84.4327 88.9005H92.98C93.5963 88.9005 94.0961 88.4008 94.0961 87.7845C94.0961 87.1681 93.5963 86.6684 92.98 86.6684ZM77.0423 86.6684L73.4474 79.1721C73.5413 79.1327 73.6344 79.0916 73.7279 79.0511C73.7664 79.0345 73.8051 79.0181 73.8435 79.0013C74.0586 78.9068 74.2722 78.809 74.4847 78.7089C74.5294 78.6879 74.5737 78.6665 74.6182 78.645C74.8295 78.5438 75.0398 78.4407 75.2484 78.3339C75.2557 78.3301 75.263 78.3266 75.2703 78.3229C75.4838 78.2132 75.6953 78.0998 75.9059 77.9843C75.9508 77.9598 75.9956 77.9351 76.0404 77.9102C76.2463 77.7956 76.451 77.6788 76.6536 77.5589C76.6843 77.5407 76.7148 77.522 76.7455 77.5037C76.8444 77.4444 76.9435 77.3856 77.0417 77.3251L82.4807 86.6684H77.0423ZM71.3449 79.9501L74.5667 86.6684H51.9426L55.1657 79.9496C57.7721 80.7901 60.4883 81.2168 63.2553 81.2168C66.0257 81.2168 68.7419 80.7901 71.3449 79.9501ZM49.4693 77.3208C50.6202 78.0291 51.8227 78.6474 53.0645 79.1691L49.467 86.6684H44.0286L49.4693 77.3208Z" fill="#6ADF91"/>
</svg>

<svg width="120" height="120" fill="none" xmlns="http://www.w3.org/2000/svg"><circle cx="60" cy="60" r="60" fill="#F3F3F3"/><path d="M38.222 51.504a1.117 1.117 0 001.295-.902 24.145 24.145 0 018.176-14.154 24.127 24.127 0 0115.561-5.692 24.042 24.042 0 0116.34 6.379 1.116 1.116 0 101.512-1.642 26.268 26.268 0 00-17.852-6.97 26.362 26.362 0 00-17.002 6.22 26.381 26.381 0 00-8.933 15.466 1.116 1.116 0 00.903 1.295z" fill="#6ADF91"/><path d="M76.688 69.653c.282 0 .565-.106.782-.32a20.13 20.13 0 006.064-14.463c0-11.182-9.097-20.28-20.28-20.28A20.33 20.33 0 0050.6 39.023a20.371 20.371 0 00-7.071 11.123 1.116 1.116 0 102.171.518 18.13 18.13 0 016.294-9.898 17.852 17.852 0 0111.26-3.944c9.952 0 18.048 8.096 18.048 18.048 0 4.879-1.916 9.45-5.397 12.871a1.116 1.116 0 00.783 1.912zm-4.168.708a18.02 18.02 0 01-9.266 2.556c-4.974 0-9.607-1.98-13.046-5.577a1.116 1.116 0 10-1.613 1.542c3.863 4.042 9.07 6.268 14.66 6.268 3.675 0 7.276-.994 10.412-2.874a1.116 1.116 0 10-1.148-1.915z" fill="#6ADF91"/><path d="M63.255 41.406a13.38 13.38 0 00-7.723 2.434 13.438 13.438 0 00-4.86 6.233 1.116 1.116 0 002.085.796c1.649-4.325 5.868-7.231 10.498-7.231 6.193 0 11.232 5.038 11.232 11.231s-5.039 11.232-11.232 11.232c-2.31 0-4.528-.695-6.415-2.011a11.217 11.217 0 01-4.06-5.16 1.116 1.116 0 00-2.081.808 13.442 13.442 0 004.864 6.183 13.383 13.383 0 007.692 2.412c7.424 0 13.464-6.04 13.464-13.464s-6.04-13.463-13.464-13.463z" fill="#6ADF91"/><path d="M35.81 64.445a1.116 1.116 0 00-1.508.467c-1.502 2.848-3.558 6.749-.784 10.626a1.116 1.116 0 002.006-.454c.226-1.267 1.31-2.751 3.305-4.519 1.365 2.004 3.22 3.701 5.747 5.272a1.116 1.116 0 001.497-1.597c-1.984-2.775-.493-5.584 1.235-8.837 1.538-2.898 3.25-6.124 2.027-9.417h7.697c.529 2.956 3.117 5.207 6.223 5.207a6.33 6.33 0 006.323-6.323 6.33 6.33 0 00-6.323-6.324c-3.106 0-5.694 2.252-6.223 5.208H34.85l-5.082-3.784a1.115 1.115 0 00-.666-.221h-10.08a1.116 1.116 0 00-.776 1.919 4.416 4.416 0 011.361 3.202 4.415 4.415 0 01-1.36 3.202 1.116 1.116 0 00.774 1.92h10.08c.241 0 .475-.078.667-.221l5.082-3.785h1.28c.844 1.447.86 2.993.068 5.054a1.116 1.116 0 102.084.8c.574-1.496 1.147-3.596.312-5.854h8.278c1.515 2.624.095 5.3-1.536 8.37-1.234 2.325-2.581 4.862-2.434 7.475-1.187-1.067-2.113-2.215-2.834-3.5a1.116 1.116 0 00-1.68-.32c-1.825 1.49-3.116 2.811-3.95 4.063-.264-1.885.649-3.865 1.839-6.121a1.116 1.116 0 00-.467-1.508zm27.445-13.666a4.096 4.096 0 014.091 4.091 4.096 4.096 0 01-4.091 4.092 4.098 4.098 0 01-3.936-2.976h3.936a1.116 1.116 0 000-2.232H59.32a4.098 4.098 0 013.935-2.975zm-34.523 6.98h-7.545a6.65 6.65 0 00.652-2.889c0-1.019-.225-2-.652-2.89h7.545l3.88 2.89-3.88 2.89z" fill="#4BB1E9"/><path d="M92.98 86.668h-7.917l-6.169-10.597A26.336 26.336 0 0089.601 54.87c0-5.775-1.834-11.258-5.303-15.855a1.116 1.116 0 00-1.782 1.344c3.175 4.207 4.852 9.225 4.852 14.51a24.11 24.11 0 01-10.578 19.96 23.998 23.998 0 01-5.082 2.63c-.056.021-.112.044-.17.065a24.012 24.012 0 01-8.283 1.46 24.02 24.02 0 01-8.283-1.46 24.056 24.056 0 01-6.316-3.46 1.116 1.116 0 10-1.349 1.779l.306.229-6.167 10.596H33.53a1.116 1.116 0 000 2.232h8.546l.011.001H92.98a1.116 1.116 0 000-2.233zm-15.938 0l-3.595-7.496.28-.12.117-.05a26.814 26.814 0 001.404-.668l.022-.011a26.67 26.67 0 001.384-.764l.092-.055c.098-.06.198-.118.296-.179l5.439 9.343h-5.439zm-5.697-6.718l3.222 6.718H51.943l3.223-6.718a26.293 26.293 0 008.09 1.267c2.77 0 5.486-.427 8.089-1.267zm-21.876-2.63a26.289 26.289 0 003.596 1.85l-3.598 7.498h-5.438l5.44-9.347z" fill="#6ADF91"/></svg>
